Obsidian-Light/actions/scalable/edit-redo-symbolic.svg

<svg height="16" width="16" xmlns="http://www.w3.org/2000/svg"><path d="m14.648344 11.691374 1.351656-7.691374-7.4286999 1.3994492 1.9824299 2.0525269c-1.8124929 1.7627018-4.6621023 1.7262027-6.4302771-.1044923-.5128367-.5309722-.8821689-1.1554255-1.1029515-1.8211512l-3.0205014.8359373c.3573446 1.2143467.9981296 2.3619692 1.9247587 3.3213624 2.9747166 3.0798977 7.8190703 3.0720207 10.8564983.0746352z" fill="#bebebe"/></svg>

<?xml version="1.0" encoding="UTF-8" standalone="no"?>
<!-- Created with Inkscape (http://www.inkscape.org/) -->

<svg
   xmlns:dc="http://purl.org/dc/elements/1.1/"
   xmlns:cc="http://creativecommons.org/ns#"
   xmlns:rdf="http://www.w3.org/1999/02/22-rdf-syntax-ns#"
   xmlns:svg="http://www.w3.org/2000/svg"
   xmlns="http://www.w3.org/2000/svg"
   xmlns:sodipodi="http://sodipodi.sourceforge.net/DTD/sodipodi-0.dtd"
   xmlns:inkscape="http://www.inkscape.org/namespaces/inkscape"
   width="16"
   height="16"
   id="svg2"
   sodipodi:version="0.32"
   inkscape:version="0.48.1 r9760"
   version="1.0"
   sodipodi:docname="edit-redo.svg"
   inkscape:output_extension="org.inkscape.output.svg.inkscape">
  <defs
     id="defs4" />
  <sodipodi:namedview
     id="base"
     pagecolor="#ffffff"
     bordercolor="#9a9a9a"
     borderopacity="1"
     inkscape:pageopacity="0.0"
     inkscape:pageshadow="2"
     inkscape:zoom="18.863371"
     inkscape:cx="-20.831529"
     inkscape:cy="1.2579918"
     inkscape:document-units="px"
     inkscape:current-layer="layer3"
     showgrid="true"
     inkscape:showpageshadow="false"
     showguides="true"
     inkscape:guide-bbox="true"
     inkscape:window-width="1920"
     inkscape:window-height="1028"
     inkscape:window-x="0"
     inkscape:window-y="25"
     inkscape:window-maximized="1">
    <inkscape:grid
       type="xygrid"
       id="grid3672"
       visible="true"
       enabled="true" />
  </sodipodi:namedview>
  <metadata
     id="metadata7">
    <rdf:RDF>
      <cc:Work
         rdf:about="">
        <dc:format>image/svg+xml</dc:format>
        <dc:type
           rdf:resource="http://purl.org/dc/dcmitype/StillImage" />
      </cc:Work>
    </rdf:RDF>
  </metadata>
  <g
     inkscape:groupmode="layer"
     id="layer3"
     inkscape:label="Arrow"
     style="display:inline">
    <path
       style="fill:#bebebe;fill-opacity:1;stroke:none;display:inline"
       d="M 14.648344,11.691374 16,4 8.5713001,5.3994492 10.55373,7.4519761 C 8.7412371,9.2146779 5.8916277,9.1781788 4.1234529,7.3474838 3.6106162,6.8165116 3.241284,6.1920583 3.0205014,5.5263326 L 0,6.3622699 C 0.3573446,7.5766166 0.9981296,8.7242391 1.9247587,9.6836323 4.8994753,12.76353 9.743829,12.755653 12.781257,9.7582675 l 1.867087,1.9331065 z"
       id="Shadow"
       inkscape:label="#path3268"
       inkscape:connector-curvature="0" />
  </g>
</svg>
